images/header-1.svg

<svg width="34" height="34" viewBox="0 0 34 34" fill="none" xmlns="http://www.w3.org/2000/svg">
<path d="M34 14.7245H22.4936L30.6298 6.58832L27.4117 3.37024L19.2755 11.5064V0H14.7245V11.5064L6.58832 3.37024L3.37024 6.58832L11.5062 14.7245H0V19.2758H11.5062L3.37024 27.4117L6.58832 30.63L14.7245 22.4938V34H19.2755V22.4938L27.4117 30.63L30.6298 27.4117L22.4936 19.2758H34V14.7245Z" fill="#773FB2"/>
</svg>

<svg xmlns="http://www.w3.org/2000/svg" width="34" height="34" fill="none" xmlns:v="https://vecta.io/nano"><path d="M34 14.725H22.494l8.136-8.136-3.218-3.218-8.136 8.136V0h-4.551v11.506L6.588 3.37 3.37 6.588l8.136 8.136H0v4.551h11.506L3.37 27.412l3.218 3.218 8.136-8.136V34h4.551V22.494l8.136 8.136 3.218-3.218-8.136-8.136H34v-4.551z" fill="#773fb2"/></svg>
